X: 1
T: Scotty O'Neil
R:
C: Bob McQuillen '73
B:
D:
Z: John Chambers <jc:trillian.mit.edu>
M: C|
L: 1/8
K: D
AG |\
"D"F2D2 A2F2 | "G"dedc BABc | "D"d2A2 G2F2 | "A7"F2E4 AG |
| "D"F2D2 A2F2 | "G"dedc BABc | "D"d2A2 ABAG | "D"F2D4 :|
|: AG |\
"D"F2A2 f3e | "G"d2c2 B3c | "D"d2A2 G2F2 | "A7"F2E4 AG |
| "D"F2A2 f3e | "G"d2c2 B3c | "D"d2A2 ABAG | "D"F2D4 :|
